X: 07086
T: NOMAD QUADRILLE
C: Bob McQuillen 16 Oct 88
B: Bob's Note Book 7 #88
%R: march
Z: 2021 John Chambers <jc:trillian.mit.edu>
M: C
L: 1/4
K: G
DGA \
| B2G>E | DED>E | DGFG | A2AB | c2A>F | DED>E | DAGA | BGDG |
| B2G>E | DED>E | DGFG | BAAB | c>BAG | A>GFE | DcBA | G ||
|| DGB \
| d3e | d3e | dBGc | B3d | BGBG | ABcd | edd>c | BDGB |
| d3e | d3e | dBGc | B3d | BGcB | AGFE | DcBA  | G |]
%%begintext align
%% For Chip and Fran Hendrickson of
%% Sandy Hook, CT. We had a great time
%% at their very first NOMAD Festival.
%%endtext

%%sep 1 1 500

%%sep 1 1 500

